X:1
T: Mrs. L. Mongomerie
C:
R:Strathspey
Q: 128
K:D
M:4/4
L:1/16
|:F2|D4 D3d d3c B3A|B3A B3d eE3 E3F|D4 D3d d3c B3A|Bcd2 efg2 fd3 d2F2|
D4 D3d d3c B3A|B3A B3d eE3 E3F|D4 D3d d3c B3A|Bcd2 efg2 fd3 d2fg|
a3A a3f a3d b3f|a3d a3f fe3 e2fg|a3A a3f a3d b3f|A3d e2de fd3 d2fg|
a3A a3f a3d b3f|a3d a3f fe3 e2f2|D4 D3d d3c B3A|Bcd2 efg2 fd3 d2:|
